src/assets/images/loyalty.svg

<svg width="54" height="53" viewBox="0 0 54 53" fill="none" xmlns="http://www.w3.org/2000/svg">
<path d="M50.9476 14.8247L52.1481 13.6074C52.9385 12.8032 53.2075 11.6218 52.8433 10.5546C52.518 9.53107 51.6428 8.77892 50.582 8.61133L44.7996 7.73775C44.4479 7.67771 44.1494 7.44563 44.0046 7.11945L41.3996 1.63484C40.9501 0.639628 39.9592 0 38.8671 0C37.775 0 36.7841 0.639628 36.3346 1.63484L33.7277 7.12462C33.5829 7.4508 33.2845 7.68289 32.9327 7.74293L27.1504 8.6165C26.0896 8.78409 25.2142 9.53624 24.8891 10.5598C24.5248 11.627 24.7938 12.8084 25.5843 13.6126L26.1028 14.1426H4.41674C1.97861 14.1456 0.00289846 16.1213 0 18.5595V48.5833C0.00289846 51.0213 1.97861 52.997 4.41674 53H48.5838C51.0218 52.9971 52.9975 51.0214 53.0005 48.5833V18.5497C53.0037 17.0373 52.2281 15.6296 50.9476 14.8247ZM26.5674 11.1147C26.6824 10.7218 27.0124 10.4296 27.4163 10.3629L33.1978 9.48935C34.1296 9.34225 34.9268 8.74072 35.3241 7.88516L37.9299 2.39434C38.0872 2.01567 38.4571 1.76889 38.8671 1.76889C39.2771 1.76889 39.6469 2.01567 39.8043 2.39434L42.4102 7.88516C42.8073 8.74041 43.6041 9.34194 44.5355 9.48935L50.3178 10.3629C50.7217 10.4296 51.0516 10.7218 51.1667 11.1147C51.3171 11.5507 51.2103 12.0343 50.8902 12.3664L46.7385 16.5702C46.0735 17.2563 45.7748 18.218 45.9338 19.1602L46.9178 25.1254C47.0033 25.578 46.8207 26.0394 46.4488 26.3109C46.145 26.5352 45.7379 26.5601 45.409 26.3744L40.1832 23.5186C39.3633 23.0693 38.3707 23.0693 37.5509 23.5186L32.3303 26.3743C32.0015 26.5599 31.5942 26.5351 31.2905 26.3108C30.9185 26.0392 30.736 25.5779 30.8215 25.1253L31.8002 19.1601C31.9579 18.217 31.6571 17.2553 30.9902 16.5701L26.8439 12.3663C26.5228 12.0337 26.4158 11.5487 26.5674 11.112V11.1147ZM4.41674 15.8997H27.8482L29.7342 17.8112C30.0049 18.0928 30.1252 18.4865 30.0584 18.8713L29.0744 24.8365C28.8758 25.9565 29.3391 27.0909 30.2651 27.7515C31.1195 28.3664 32.2514 28.4351 33.1739 27.9282L38.398 25.0724C38.69 24.9114 39.0441 24.9114 39.336 25.0724L44.5601 27.9282C45.4825 28.4357 46.6147 28.3668 47.4689 27.7515C48.3949 27.0909 48.8582 25.9565 48.6597 24.8365L47.6756 18.8713C47.6087 18.4865 47.729 18.0928 47.9998 17.8112L49.6561 16.1329C50.6169 16.5519 51.2369 17.5016 51.2338 18.5497V35.3332H1.76671V18.5497C1.76671 17.0861 2.95312 15.8997 4.41674 15.8997ZM51.2337 44.1666H1.76671V37.0999H51.2338V44.1666H51.2337ZM48.5837 51.2333H4.41674C2.95322 51.2333 1.76671 50.0468 1.76671 48.5833V45.9332H51.2338V48.5833C51.2337 50.0469 50.0473 51.2333 48.5837 51.2333Z" fill="url(#paint0_linear)"/>
<path d="M38.8671 30.9166C39.3549 30.9166 39.7504 30.5211 39.7504 30.0333V27.3833C39.7504 26.8954 39.3548 26.5 38.8671 26.5C38.3792 26.5 37.9838 26.8955 37.9838 27.3833V30.0333C37.9837 30.5211 38.3792 30.9166 38.8671 30.9166Z" fill="url(#paint1_linear)"/>
<path d="M38.8671 34.4497C39.3549 34.4497 39.7504 34.0543 39.7504 33.5664V32.6831C39.7504 32.1952 39.3548 31.7998 38.8671 31.7998C38.3792 31.7998 37.9838 32.1952 37.9838 32.6831V33.5664C37.9837 34.0542 38.3792 34.4497 38.8671 34.4497Z" fill="url(#paint2_linear)"/>
<path d="M42.4003 32.6832C42.8881 32.6832 43.2836 32.2878 43.2836 31.7999V29.1499C43.2836 28.662 42.888 28.2666 42.4003 28.2666C41.9124 28.2666 41.517 28.662 41.517 29.1499V31.7999C41.517 32.2878 41.9124 32.6832 42.4003 32.6832Z" fill="url(#paint3_linear)"/>
<path d="M35.3336 32.6832C35.8214 32.6832 36.2169 32.2878 36.2169 31.7999V29.1499C36.2169 28.662 35.8213 28.2666 35.3336 28.2666C34.8458 28.2666 34.4503 28.662 34.4503 29.1499V31.7999C34.4503 32.2878 34.8458 32.6832 35.3336 32.6832Z" fill="url(#paint4_linear)"/>
<path d="M7.95013 30.0332H16.7835C18.247 30.0332 19.4335 28.8467 19.4335 27.3832V22.0831C19.4335 20.6196 18.247 19.4331 16.7835 19.4331H7.95013C6.48662 19.4331 5.30011 20.6196 5.30011 22.0831V27.3832C5.30011 28.8468 6.48662 30.0332 7.95013 30.0332ZM7.06682 22.0831C7.06682 21.5953 7.46236 21.1998 7.95013 21.1998H16.7835C17.2714 21.1998 17.6668 21.5954 17.6668 22.0831V27.3832C17.6668 27.871 17.2713 28.2665 16.7835 28.2665H7.95013C7.46226 28.2665 7.06682 27.871 7.06682 27.3832V22.0831Z" fill="url(#paint5_linear)"/>
<defs>
<linearGradient id="paint0_linear" x1="1.51438" y1="26.5" x2="53.0032" y2="26.5" gradientUnits="userSpaceOnUse">
<stop stop-color="#015AAD"/>
<stop offset="1" stop-color="#00B74F"/>
</linearGradient>
<linearGradient id="paint1_linear" x1="38.0342" y1="28.7083" x2="39.7504" y2="28.7083" gradientUnits="userSpaceOnUse">
<stop stop-color="#015AAD"/>
<stop offset="1" stop-color="#00B74F"/>
</linearGradient>
<linearGradient id="paint2_linear" x1="38.0342" y1="33.1248" x2="39.7504" y2="33.1248" gradientUnits="userSpaceOnUse">
<stop stop-color="#015AAD"/>
<stop offset="1" stop-color="#00B74F"/>
</linearGradient>
<linearGradient id="paint3_linear" x1="41.5674" y1="30.4749" x2="43.2836" y2="30.4749" gradientUnits="userSpaceOnUse">
<stop stop-color="#015AAD"/>
<stop offset="1" stop-color="#00B74F"/>
</linearGradient>
<linearGradient id="paint4_linear" x1="34.5007" y1="30.4749" x2="36.2169" y2="30.4749" gradientUnits="userSpaceOnUse">
<stop stop-color="#015AAD"/>
<stop offset="1" stop-color="#00B74F"/>
</linearGradient>
<linearGradient id="paint5_linear" x1="5.70392" y1="24.7331" x2="19.4335" y2="24.7331" gradientUnits="userSpaceOnUse">
<stop stop-color="#015AAD"/>
<stop offset="1" stop-color="#00B74F"/>
</linearGradient>
</defs>
</svg>

<svg width="54" height="53" fill="none" xmlns="http://www.w3.org/2000/svg"><path d="M50.948 14.825l1.2-1.218a2.981 2.981 0 00.695-3.052 2.837 2.837 0 00-2.261-1.944L44.8 7.738a1.066 1.066 0 01-.795-.619L41.4 1.635a2.779 2.779 0 00-5.065 0l-2.607 5.49a1.066 1.066 0 01-.795.618l-5.783.873a2.837 2.837 0 00-2.26 1.944 2.981 2.981 0 00.694 3.053l.519.53H4.417A4.422 4.422 0 000 18.559v30.024A4.422 4.422 0 004.417 53h44.167A4.422 4.422 0 0053 48.583V18.55a4.389 4.389 0 00-2.052-3.725zm-24.38-3.71c.114-.393.444-.685.848-.752l5.782-.874a2.831 2.831 0 002.126-1.604l2.606-5.49a1.015 1.015 0 011.874 0l2.606 5.49a2.831 2.831 0 002.126 1.604l5.782.874c.404.067.734.359.849.752.15.436.043.92-.277 1.251l-4.15 4.204a3.003 3.003 0 00-.805 2.59l.984 5.965c.085.453-.097.914-.47 1.186a.958.958 0 01-1.039.063l-5.226-2.855a2.739 2.739 0 00-2.632 0l-5.22 2.855a.958.958 0 01-1.04-.063 1.193 1.193 0 01-.47-1.186l.98-5.965a3.003 3.003 0 00-.81-2.59l-4.147-4.204a1.227 1.227 0 01-.277-1.254v.003zM4.416 15.9h23.431l1.886 1.911c.27.282.391.675.324 1.06l-.984 5.966a2.948 2.948 0 001.191 2.915 2.73 2.73 0 002.909.176l5.224-2.856a.971.971 0 01.938 0l5.224 2.856a2.727 2.727 0 002.909-.177 2.949 2.949 0 001.19-2.915l-.983-5.965a1.226 1.226 0 01.324-1.06l1.656-1.678a2.628 2.628 0 011.578 2.417v16.783H1.767V18.55a2.65 2.65 0 012.65-2.65zm46.817 28.267H1.767V37.1h49.467v7.067zm-2.65 7.066H4.417a2.65 2.65 0 01-2.65-2.65v-2.65h49.467v2.65a2.65 2.65 0 01-2.65 2.65z" fill="url(#paint0_linear)"/><path d="M38.867 30.917a.883.883 0 00.883-.884v-2.65a.883.883 0 00-1.766 0v2.65c0 .488.395.884.883.884z" fill="url(#paint1_linear)"/><path d="M38.867 34.45a.883.883 0 00.883-.884v-.883a.883.883 0 00-1.766 0v.883c0 .488.395.884.883.884z" fill="url(#paint2_linear)"/><path d="M42.4 32.683a.883.883 0 00.884-.883v-2.65a.883.883 0 00-1.767 0v2.65c0 .488.395.883.883.883z" fill="url(#paint3_linear)"/><path d="M35.334 32.683a.883.883 0 00.883-.883v-2.65a.883.883 0 00-1.767 0v2.65c0 .488.396.883.884.883z" fill="url(#paint4_linear)"/><path d="M7.95 30.033h8.834a2.65 2.65 0 002.65-2.65v-5.3a2.65 2.65 0 00-2.65-2.65H7.95a2.65 2.65 0 00-2.65 2.65v5.3a2.65 2.65 0 002.65 2.65zm-.883-7.95c0-.488.395-.883.883-.883h8.834c.487 0 .883.395.883.883v5.3a.883.883 0 01-.884.884H7.95a.883.883 0 01-.883-.884v-5.3z" fill="url(#paint5_linear)"/><defs><linearGradient id="paint0_linear" x1="1.514" y1="26.5" x2="53.003" y2="26.5" gradientUnits="userSpaceOnUse"><stop stop-color="#015AAD"/><stop offset="1" stop-color="#00B74F"/></linearGradient><linearGradient id="paint1_linear" x1="38.034" y1="28.708" x2="39.75" y2="28.708" gradientUnits="userSpaceOnUse"><stop stop-color="#015AAD"/><stop offset="1" stop-color="#00B74F"/></linearGradient><linearGradient id="paint2_linear" x1="38.034" y1="33.125" x2="39.75" y2="33.125" gradientUnits="userSpaceOnUse"><stop stop-color="#015AAD"/><stop offset="1" stop-color="#00B74F"/></linearGradient><linearGradient id="paint3_linear" x1="41.567" y1="30.475" x2="43.284" y2="30.475" gradientUnits="userSpaceOnUse"><stop stop-color="#015AAD"/><stop offset="1" stop-color="#00B74F"/></linearGradient><linearGradient id="paint4_linear" x1="34.501" y1="30.475" x2="36.217" y2="30.475" gradientUnits="userSpaceOnUse"><stop stop-color="#015AAD"/><stop offset="1" stop-color="#00B74F"/></linearGradient><linearGradient id="paint5_linear" x1="5.704" y1="24.733" x2="19.433" y2="24.733" gradientUnits="userSpaceOnUse"><stop stop-color="#015AAD"/><stop offset="1" stop-color="#00B74F"/></linearGradient></defs></svg>
